X: 152
T: Merry Lads of Air
R: reel
B: Robert Bremner "A Collection of Scots Reels or Country Dances" p.15 #2
S: http://imslp.org/wiki/A_Collection_of_Scots_Reels_or_Country_Dances_(Bremner,_Robert)
Z: 2013 John Chambers <jc:trillian.mit.edu>
M: C|
L: 1/8
K: C
% - - - - - - - - - - - - - - - - - - - - - - - - -
V: 1
f |\
edcA cGGf | edcA f2(e/f/g) |\
edcA cGGc | (A/B/c) GE D2C :|
|: z |\
c2g>a g>ede | c2ga g2(Tfe) |\
c/c/c ga gede | f>g a/g/f/e/ d2d :|
% - - - - - - - - - - - - - - - - - - - - - - - - -
V: 2 clef=bass middle=d
z |\
c2c2 G2G2 | c2c2 c2c2 |\
c2c2 g2g2 | f2g2 g2c :|\
|: z |
c2c2 G2G2 | c2c2 c2c2 |\
c2c2 g2g2 | f2e2 d2d :|
% - - - - - - - - - - - - - - - - - - - - - - - - -

%%sep 1 1 500
%%sep 1 1 500
